X:16
T:Kid On The Mountain
M:9/8
L:1/8
R:slipjig
K:Emin
EDE FEF G2F | EDE BcA BFD | EDE FEF G2A | BAG FAG FED :: 
BGB AFA G2D | GAB dge dBA | BGB AFA G2A | BAG FAG FED :: 
gfg eBe e2f | gfg efg afd | gfg eBe g2a | bag fag fed :: 
eBB e2f g2f | eBB efg afd | eBB e2f g2a | bag fag fed :: 
edB dBA G2D | GAB dge dBA | edB dBA G2A | BAG FAG FED :|
